X: 16
T:Slainte Righ Pilib
T:Health to King Phillip
M:3/4
L:1/8
S:O'Farrell's Pocket Companion, 1804-1810
R:Air
K:C
"Moderato"A2|G2 A2 A2|A2 B2 AG|A2 B2 d2|e2 ^f2 g2|d2 B2 BA|G4 ed|
B2 A2 A2|A2 B2 AG|A2 B 2d2|e2 ^f2 g2|B4 A2|A4:|
|:ed|e2 a2 a2|a2 b2 ag|a4 ba|g2 e2 g2|d2 B2 BA|G4 ed|
B2 A2 A2|A2 B2 AG|A2 B2 d2|e2 ^f2 g2|B4 A2|A4:||

